X:1
T:New Doxlogy
T:Seeley D. Kinne
T:New Doxlogy
T:Public Domain
T:Public Domain
C:Seeley D. Kinne
Z:Public Domain
%%score ( 1 2 ) ( 3 4 )
L:1/8
M:3/2
K:G
V:1 treble 
V:2 treble 
V:3 bass 
V:4 bass 
V:1
 D4 | (G2 F2 G4) [DA]4 | (B2 ^A2 B4) [Gc]4 | [GB]2 [DA]2 [DG]4 [FA]4 | (B2 ^A2 B4) [Gc]4 | %5
w: 1.~Come|’ry * * soul|neath * * the|And praise the Ma-|jes- * * ty|
w: 2.~With|ing * * worlds|yond * * the|Be- yond the reach|of * * mor-|
w: 3.~Al-|it * * be|fee- * * ble|Be- gin to praise|Him * * now|
w: 4.~O|the * * Lord|all * * He’s|For all His bless-|ings, * * one|
w: 5.~With|and * * lips|ho- * * ly|O let us mag-|ni- * * fy|
 [Gd]2 [GB]2 [Ac]4 [GB]4 | [FA]8 [Dd]4 | [DB]4 [B,D]4 G2 A2 | [^CB]4 [CA]4 [GB]2 [G^c]2 | %9
w: high, With all the|saints and|heav’n- ly host, *|Praise Fa- ther, Son|
w: eyes, Sing prais- es|to Al-|might- y God, *|For His all- wise|
w: faith. And from a|stream so|faint and slow, *|Will burst an o-|
w: one, And see His|good- ness,|mount- ains high, *|Fill all the earth|
w: Name, Till all the|earth re-|stored a- gain, *|Shall praise our God|
 [Fd]8 [Ad]4 | [Ge]4 [Gd]4 G2 F2 | [CG]4 [Ec]4 ([GB]2 [Ac]2) | [FA]4 [DG]4 |] %13
w: and Ho-|ly Ghost. * *|||
w: cre- at-|ing Word. * *|||
w: cean in|its flow. * *|||
w: and sea|and sky. * *|||
w: in glad|re- frain. * *|||
V:2
 D4 | D8 x4 | G8 x4 | x12 | G8 x4 | x12 | x12 | x8 ^C4 | x12 | x12 | x8 C4 | x12 | x8 |] %13
w: ev-|be-|sky,||on|||||||||
w: blaz-|be-|skies,||tal|||||||||
w: though|with|breath,||by|||||||||
w: praise|for|done,||by|||||||||
w: hearts|in|flame,||His|||||||||
V:3
 [G,B,]4 | (B,2 A,2 B,4) [G,C]4 | (D2 ^C2 D4) [G,E]4 | [G,D]2 [G,C]2 [G,B,]4 [D,D]4 | %4
 (D2 ^C2 D4) [G,E]4 | [B,D]2 [G,D]2 [F,D]4 [G,D]4 | [D,D]8 D,4 | [G,B,]4 [G,B,]4 ([E,G,]4 | %8
 [E,G,]4) [A,C]4 [A,D]2 [A,E]2 | [D,D]8 [F,D]4 | [G,C]4 [G,B,]4 ([E,G,]4 | %11
 [E,G,]4) [A,,A,]4 [D,D]4 | [D,C]4 [G,B,]4 |] %13
V:4
 x4 | G,8 x4 | G,8 x4 | x12 | G,8 x4 | x12 | x8 D,4 | x12 | x12 | x12 | x12 | x12 | x8 |] %13

